outputs/icons/file/finished_download_round.svg

<svg width="1200" height="1200" viewBox="0 0 1200 1200" fill="none" xmlns="http://www.w3.org/2000/svg"><g clip-path="url(#clip0_238_2801)"><path d="M300 899.995H900C927.5 899.995 950 922.495 950 949.995C950 977.495 927.5 999.995 900 999.995H300C272.5 999.995 250 977.495 250 949.995C250 922.495 272.5 899.995 300 899.995ZM550.5 694.995C511.5 733.495 448.5 733.495 409.5 694.495L300 584.995C272.5 557.495 273 512.995 301.5 486.497C328.5 460.497 371.5 461.497 397.5 487.497L480 569.995L801.5 248.497C828.5 221.497 872 221.497 899 248.497L901 250.497C928 277.497 928 321.497 900.5 348.497L550.5 694.995Z" fill="black"/></g><defs><clipPath id="clip0_238_2801"><path width="24" fill="white" d="M0 0H1200V1200H0V0z"/></clipPath></defs></svg>

<svg xmlns="http://www.w3.org/2000/svg" width="1200" height="1200" fill="none"><g clip-path="url(#a)"><path fill="#000" d="M300 899.995h600c27.5 0 50 22.5 50 50s-22.5 50-50 50H300c-27.5 0-50-22.5-50-50s22.5-50 50-50m250.5-205c-39 38.5-102 38.5-141-.5L300 584.995c-27.5-27.5-27-72 1.5-98.498 27-26 70-25 96 1l82.5 82.498 321.5-321.498c27-27 70.5-27 97.5 0l2 2c27 27 27 71-.5 98z"/></g><defs><clipPath id="a"><path fill="#fff" d="M0 0h1200v1200H0z"/></clipPath></defs></svg>
